X:259
T:Reel de Ti=Jean
R:Reel
B:N.E. Fiddler's
Z:Transcription, chords:Mike Long
M:C|
L:1/8
K:D
ag|\
"D"f2A2 f2A2|fgfe d2ef|"G"g2B2 g2B2|gagf e2ag|\
"D"f2A2 f2A2|
fgfe d2ef|"G"g2e2 "A"cBA2|"D"[F4d4][F2d2]:|\
|:B2|\
"D"ABAG F2A2|d2e2 f3f|
"G"g2e2 "A"cBA2|"D"dcde "A"f2d2|\
"D"ABAG F2A2|dcde f3f|"G"g2e2 "A"cBA2|"D"d4d2:|
